img/svg/whatsapp.svg

<svg width="18" height="18" viewBox="0 0 18 18" fill="none" xmlns="http://www.w3.org/2000/svg">
<path fill-rule="evenodd" clip-rule="evenodd" d="M4.8801 6.98633C4.84908 6.57426 4.92995 6.16146 5.11428 5.79127C5.17044 5.64379 5.2485 5.50554 5.34585 5.38114C5.51962 5.14696 5.75181 4.96209 6.01938 4.84485C6.01938 4.84485 6.81465 4.76707 6.88346 4.87359C7.252 5.51098 7.56031 6.18111 7.80442 6.87533C7.92616 7.32936 7.28705 7.84759 7.28705 7.84759C7.28705 7.84759 6.88214 8.05325 7.28705 8.56252C7.58875 8.94259 8.10216 9.60492 8.41047 9.84947C8.73615 10.115 9.08263 10.3541 9.44658 10.5647C10.1995 10.9806 10.3398 10.9363 10.3398 10.9363C10.3398 10.9363 10.4787 10.9928 10.8571 10.4788C11.0596 10.2059 11.2806 9.88559 11.491 9.82099C11.7344 9.74677 13.7007 10.8718 13.6227 10.7933C13.7603 10.9315 13.6518 11.3749 13.6518 11.3749C13.6518 11.3749 13.6941 11.8709 12.9452 12.4427C12.4516 12.8199 11.6352 12.9097 11.6352 12.9097C11.1211 12.8731 10.6159 12.7574 10.1373 12.5669C9.33939 12.2673 8.49647 12.0151 7.40215 11.0228C6.64195 10.335 5.98152 9.54526 5.43982 8.67616C4.86422 7.68728 4.8801 6.98633 4.8801 6.98633ZM9.17266 17.5996C7.64694 17.6018 6.1468 17.2091 4.8192 16.4601L0 18L1.58391 13.3113C0.584352 11.6435 0.166765 9.6931 0.396227 7.76415C0.625689 5.8352 1.4893 4.03609 2.85244 2.64732C4.21559 1.25854 6.00167 0.358137 7.93219 0.0864886C9.86272 -0.185159 11.8292 0.187211 13.5251 1.14555C15.221 2.10389 16.5509 3.59433 17.3076 5.38452C18.0643 7.17471 18.2052 9.16403 17.7084 11.0423C17.2115 12.9207 16.1048 14.5824 14.5609 15.7685C13.0169 16.9547 11.1223 17.5985 9.17266 17.5996ZM9.15809 1.49868C7.80214 1.49366 6.47107 1.86125 5.31121 2.56103C4.15136 3.26082 3.20763 4.2657 2.58382 5.46518C1.96002 6.66467 1.68029 8.0123 1.77538 9.3599C1.87047 10.7075 2.33672 12.0029 3.12284 13.1036L2.4202 15.2261L2.42285 15.2281L2.21774 15.8267L3.40997 15.4741C3.40807 15.4718 3.40583 15.4699 3.40335 15.4683L5.03888 14.9555C5.99647 15.5999 7.09248 16.0116 8.2388 16.1573C9.38512 16.303 10.5498 16.1786 11.6391 15.7943C12.7284 15.41 13.712 14.7764 14.5108 13.9445C15.3097 13.1125 15.9014 12.1054 16.2385 11.0042C16.5756 9.90294 16.6487 8.73825 16.4518 7.60377C16.2549 6.46928 15.7936 5.39664 15.1049 4.4721C14.4162 3.54755 13.5194 2.7969 12.4866 2.28048C11.4537 1.76405 10.3137 1.49628 9.15809 1.49868Z" fill="white"/>
</svg>

<svg width="18" height="18" viewBox="0 0 18 18" fill="none" xmlns="http://www.w3.org/2000/svg"><path fill-rule="evenodd" clip-rule="evenodd" d="M4.88 6.986c-.03-.412.05-.825.234-1.195.056-.147.135-.285.232-.41.174-.234.406-.419.673-.536 0 0 .796-.078.864.029.369.637.677 1.307.921 2.001.122.454-.517.973-.517.973s-.405.205 0 .715c.302.38.815 1.042 1.123 1.286a7.93 7.93 0 001.037.716c.753.416.893.371.893.371s.139.057.517-.457c.203-.273.424-.593.634-.658.243-.074 2.21 1.05 2.132.972.137.139.029.582.029.582s.042.496-.707 1.068c-.493.377-1.31.467-1.31.467a5.013 5.013 0 01-1.498-.343c-.798-.3-1.64-.552-2.735-1.544A11.04 11.04 0 015.44 8.676c-.576-.989-.56-1.69-.56-1.69zM9.173 17.6a8.835 8.835 0 01-4.354-1.14L0 18l1.584-4.689A8.773 8.773 0 012.852 2.647a8.86 8.86 0 0110.673-1.502 8.81 8.81 0 013.783 4.24 8.77 8.77 0 01.4 5.657 8.798 8.798 0 01-3.147 4.726A8.853 8.853 0 019.173 17.6zM9.158 1.499A7.394 7.394 0 005.311 2.56a7.357 7.357 0 00-2.727 2.904 7.323 7.323 0 00.539 7.639l-.703 2.122.003.002-.205.599 1.192-.353a.029.029 0 00-.007-.006l1.636-.512a7.404 7.404 0 009.472-1.011 7.333 7.333 0 00.594-9.472 7.38 7.38 0 00-2.618-2.193A7.409 7.409 0 009.158 1.5z" fill="#fff"/></svg>
